X:21
T: Pennknivsmordaren (Pen-Knife Killer)
C: Swedish Polska
Z: Seth Austen for CoMando TOW #21 2008
S: from Vasen recording
L: 1/8
Q: 240
M: 3/4
K: Am
|: a/b/a/g/ f/g/f/d/ ee | ce/d/ c/B/A/^G/ AE | A/^G/A/B/ c/B/c/d/ e^f | d/^c/d/^f/ a/b/a/^g/ e2 |
 a/b/a/g/ f/g/f/d/ ee | ce/d/ c/B/A/^G/ AE | A/^G/A/B/ c/B/c/e/ d/c/B/A/ | ^G/A/B/G/ A4 :|
|: Ec Ec Ec | cB GB BB | BA/^G/ A/B/c/d/ e/f/e/d/ | c/d/c/B/ A/B/A/^G/ E2 |
 Ec Ec Ec | cB GB BB | BA/^G/ A/B/c/d/ e/f/e/d/ | c/B/A/^G/ A4 :|
